icon-themes/breeze_svg/svtools/res/ed04.svg

<svg viewBox="0 0 11 11" xmlns="http://www.w3.org/2000/svg"><path d="m2 1.34375-.375.375-.28125.25v.03125l3.5 3.5-3.5 3.5.65625.6875 3.53125-3.5 3.46875 3.46875.65625-.65625-3.5-3.5 3.5-3.5-.625-.65625-3.53125 3.53125z" fill="#da4453"/></svg>

<svg xmlns="http://www.w3.org/2000/svg" viewBox="0 0 11 11">
    <path
       style="fill:#da4453"
       d="M 2 1.34375 L 1.625 1.71875 L 1.34375 1.96875 L 1.34375 2 L 4.84375 5.5 L 1.34375 9 L 2 9.6875 L 5.53125 6.1875 L 9 9.65625 L 9.65625 9 L 6.15625 5.5 L 9.65625 2 L 9.03125 1.34375 L 5.5 4.875 L 2 1.34375 z "
       />
</svg>
